public/images/icons/android.svg

<svg width="60" height="60" fill="none" xmlns="http://www.w3.org/2000/svg"><rect width="60" height="60" rx="19" fill="url(#paint0_radial)"/><path fill-rule="evenodd" clip-rule="evenodd" d="M42.4749 18.3289c.1174.2031.1173.4534-.0004.6564l-3.1622 5.4635C44.7422 27.395 48.4561 32.8787 49 39.3577H11c.5433-6.479 4.2575-11.9627 9.6877-14.9089l-3.1625-5.4644c-.1175-.2031-.1175-.4533 0-.6563.1176-.2031.3348-.3281.5699-.3281.235 0 .4522.1251.5697.3282l3.2019 5.5325c2.4487-1.1139 5.1986-1.7356 8.133-1.7356 2.9344 0 5.6846.6208 8.1333 1.7356l3.2022-5.5325c.1176-.203.3349-.328.57-.3278.2351.0001.4523.1253.5697.3285zm-24.599 13.9564c-.0004-1.9471 1.5777-3.5258 3.5248-3.5262 1.9471-.0003 3.5259 1.5778 3.5262 3.5249-.0018 1.9462-1.5786 3.5237-3.5248 3.5262-1.9471.0004-3.5259-1.5778-3.5262-3.5249zm17.4744 0c-.0003-1.9471 1.5778-3.5258 3.5249-3.5262 1.9471-.0003 3.5259 1.5778 3.5262 3.5249-.0022 1.9461-1.5788 3.5233-3.5248 3.5262-1.9472.0004-3.5259-1.5778-3.5263-3.5249z" fill="#fff"/><path d="M42.4745 18.9853l-.8652-.5015-.0002.0005.8654.501zm.0004-.6564l.8658-.5004v-.0001l-.8658.5005zm-3.1626 6.1199l-.8655-.501c-.1352.2337-.1703.5121-.0971.772s.2484.4792.4857.6079l.4769-.8789zM49 39.3577v1c.2798 0 .5467-.1172.7361-.3232.1894-.2059.2838-.4817.2604-.7605L49 39.3577zm-38 0l-.9965-.0836c-.02338.2788.0711.5546.2604.7605.1894.2059.4564.3231.7361.3231v-1zm9.6877-14.9089l.4769.8789c.2373-.1287.4125-.348.4857-.6078.0732-.2599.0381-.5384-.0971-.772l-.8655.5009zm-3.1625-5.4644l-.8656.5008.0001.0001.8655-.5009zm0-.6563l.8655.501-.8655-.501zM18.0951 18l.0001-1-.0001 1zm.5697.3282l-.8655.5008v.0001l.8655-.5009zm3.2019 5.5325l-.8655.5009c.2577.4453.8113.6224 1.2796.4094l-.4141-.9103zm16.2663 0l-.4144.9101c.4684.2133 1.0221.0362 1.2799-.4091l-.8655-.501zm3.2022-5.5325l-.8652-.5014-.0003.0005.8655.5009zm.57-.3278l-.0005 1 .0005-1zM17.8759 32.2853l-1 .0002 1-.0002zm7.051-.0013l1 .0009v-.0011l-1 .0002zm-3.5248 3.5262l.0002 1h.0011l-.0013-1zm20.9993-3.5262l1 .0011v-.0013l-1 .0002zm-3.5248 3.5262l.0001 1h.0014l-.0015-1zm4.4631-16.3235c.2972-.5128.2976-1.1451.001-1.6582l-1.7316 1.0008c-.0617-.1068-.0616-.2387.0002-.3455l1.7304 1.0029zm-3.1619 5.463l3.1622-5.4635-1.7309-1.0019-3.1623 5.4635 1.731 1.0019zm9.8187 14.3243c-.5724-6.8187-4.4849-12.5993-10.2073-15.7042l-.9538 1.7579c5.1374 2.7875 8.6527 7.9744 9.1681 14.1136l1.993-.1673zM11 40.3577h38v-2H11v2zm9.2108-16.7879c-5.7227 3.1049-9.6355 8.8855-10.2073 15.7043l1.993.1671c.5148-6.1391 4.0303-11.3259 9.1681-14.1135l-.9538-1.7579zm-3.5511-4.0845l3.1625 5.4644 1.731-1.0018-3.1625-5.4644-1.731 1.0018zm.0001-1.6583c-.2969.5129-.297 1.1452-.0002 1.6582l1.7311-1.0016c.0618.1068.0618.2387 0 .3455l-1.7309-1.0021zM18.0952 17c-.5911-.0001-1.1386.3144-1.4354.827l1.7309 1.0021c-.0617.1065-.1747.1709-.2957.1709l.0002-2zm1.4352.8274c-.2967-.5127-.8441-.8273-1.4352-.8274l-.0002 2c-.121 0-.2341-.0644-.2957-.171l1.7311-1.0016zm3.2018 5.5324l-3.2019-5.5325-1.731 1.0018 3.2019 5.5325 1.731-1.0018zm7.2675-2.2347c-3.0771 0-5.9681.6522-8.5471 1.8254l.8282 1.8205c2.3185-1.0547 4.9271-1.6459 7.7189-1.6459v-2zm8.5476 1.8255c-2.5793-1.1743-5.4708-1.8255-8.5476-1.8255v2c2.792 0 5.4008.5904 7.7189 1.6457l.8287-1.8202zm1.9224-5.1233l-3.2022 5.5325 1.731 1.0019 3.2022-5.5325-1.731-1.0019zm1.4361-.8269c-.5911-.0004-1.1388.3139-1.4358.8264l1.7304 1.0029c-.0617.1064-.1748.1707-.2957.1707l.0011-2zm1.4349.828c-.2964-.5128-.8437-.8277-1.4349-.828l-.0011 2c-.121-.0001-.234-.0646-.2956-.1711l1.7316-1.0009zm-21.9402 9.9307c-2.4993.0005-4.5251 2.027-4.5246 4.5264l2-.0004c-.0003-1.3948 1.1302-2.5257 2.525-2.526l-.0004-2zm4.5264 4.5247c-.0004-2.4994-2.027-4.5251-4.5264-4.5247l.0004 2c1.3948-.0002 2.5258 1.1303 2.526 2.5251l2-.0004zm-4.5235 4.5264c2.4976-.0033 4.5212-2.0277 4.5235-4.5253l-2-.0018c-.0013 1.3948-1.1314 2.5253-2.5262 2.5271l.0027 2zm-4.5275-4.5247c.0004 2.4994 2.027 4.5252 4.5264 4.5247l-.0004-2c-1.3948.0003-2.5258-1.1302-2.526-2.5251l-2 .0004zm21.9991-4.5264c-2.4994.0005-4.5251 2.027-4.5247 4.5264l2-.0004c-.0002-1.3948 1.1303-2.5257 2.5251-2.526l-.0004-2zm4.5264 4.5247c-.0004-2.4994-2.027-4.5251-4.5264-4.5247l.0004 2c1.3948-.0002 2.5258 1.1303 2.526 2.5251l2-.0004zm-4.5233 4.5264c2.4973-.0037 4.5205-2.0278 4.5233-4.5251l-2-.0022c-.0015 1.3948-1.1316 2.5252-2.5263 2.5273l.003 2zm-4.5278-4.5247c.0005 2.4994 2.0271 4.5252 4.5264 4.5247l-.0003-2c-1.3949.0003-2.5258-1.1302-2.5261-2.5251l-2 .0004z" fill="#fff"/><defs><radialGradient id="paint0_radial" cx="0" cy="0" r="1" gradientUnits="userSpaceOnUse" gradientTransform="matrix(0 58.0449 -86.5834 0 30 0)"><stop stop-color="#5EFFA6"/><stop offset="1" stop-color="#01A94C"/></radialGradient></defs></svg>

<svg width="60" height="60" viewBox="0 0 60 60" fill="none" xmlns="http://www.w3.org/2000/svg">
<rect width="60" height="60" rx="19" fill="url(#paint0_radial)"/>
<path fill-rule="evenodd" clip-rule="evenodd" d="M42.4749 18.3289C42.5923 18.532 42.5922 18.7823 42.4745 18.9853L39.3123 24.4488C44.7422 27.395 48.4561 32.8787 49 39.3577H11C11.5433 32.8787 15.2575 27.395 20.6877 24.4488L17.5252 18.9844C17.4077 18.7813 17.4077 18.5311 17.5252 18.3281C17.6428 18.125 17.86 18 18.0951 18C18.3301 18 18.5473 18.1251 18.6648 18.3282L21.8667 23.8607C24.3154 22.7468 27.0653 22.1251 29.9997 22.1251C32.9341 22.1251 35.6843 22.7459 38.133 23.8607L41.3352 18.3282C41.4528 18.1252 41.6701 18.0002 41.9052 18.0004C42.1403 18.0005 42.3575 18.1257 42.4749 18.3289ZM17.8759 32.2853C17.8755 30.3382 19.4536 28.7595 21.4007 28.7591C23.3478 28.7588 24.9266 30.3369 24.9269 32.284C24.9251 34.2302 23.3483 35.8077 21.4021 35.8102C19.455 35.8106 17.8762 34.2324 17.8759 32.2853ZM35.3503 32.2853C35.35 30.3382 36.9281 28.7595 38.8752 28.7591C40.8223 28.7588 42.4011 30.3369 42.4014 32.284C42.3992 34.2301 40.8226 35.8073 38.8766 35.8102C36.9294 35.8106 35.3507 34.2324 35.3503 32.2853Z" fill="white"/>
<path d="M42.4745 18.9853L41.6093 18.4838L41.6091 18.4843L42.4745 18.9853ZM42.4749 18.3289L43.3407 17.8285L43.3407 17.8284L42.4749 18.3289ZM39.3123 24.4488L38.4468 23.9478C38.3116 24.1815 38.2765 24.4599 38.3497 24.7198C38.4229 24.9797 38.5981 25.199 38.8354 25.3277L39.3123 24.4488ZM49 39.3577V40.3577C49.2798 40.3577 49.5467 40.2405 49.7361 40.0345C49.9255 39.8286 50.0199 39.5528 49.9965 39.274L49 39.3577ZM11 39.3577L10.0035 39.2741C9.98012 39.5529 10.0746 39.8287 10.2639 40.0346C10.4533 40.2405 10.7203 40.3577 11 40.3577V39.3577ZM20.6877 24.4488L21.1646 25.3277C21.4019 25.199 21.5771 24.9797 21.6503 24.7199C21.7235 24.46 21.6884 24.1815 21.5532 23.9479L20.6877 24.4488ZM17.5252 18.9844L16.6596 19.4852L16.6597 19.4853L17.5252 18.9844ZM17.5252 18.3281L18.3907 18.8291L18.3907 18.8291L17.5252 18.3281ZM18.0951 18L18.0952 17L18.0952 17L18.0951 18ZM18.6648 18.3282L17.7993 18.829L17.7993 18.8291L18.6648 18.3282ZM21.8667 23.8607L21.0012 24.3616C21.2589 24.8069 21.8125 24.984 22.2808 24.771L21.8667 23.8607ZM38.133 23.8607L37.7186 24.7708C38.187 24.9841 38.7407 24.807 38.9985 24.3617L38.133 23.8607ZM41.3352 18.3282L40.47 17.8268L40.4697 17.8273L41.3352 18.3282ZM41.9052 18.0004L41.9047 19.0004L41.9052 18.0004ZM17.8759 32.2853L16.8759 32.2855L16.8759 32.2855L17.8759 32.2853ZM24.9269 32.284L25.9269 32.2849L25.9269 32.2838L24.9269 32.284ZM21.4021 35.8102L21.4023 36.8102L21.4034 36.8102L21.4021 35.8102ZM42.4014 32.284L43.4014 32.2851L43.4014 32.2838L42.4014 32.284ZM38.8766 35.8102L38.8767 36.8102L38.8781 36.8102L38.8766 35.8102ZM43.3397 19.4867C43.6369 18.9739 43.6373 18.3416 43.3407 17.8285L41.6091 18.8293C41.5474 18.7225 41.5475 18.5906 41.6093 18.4838L43.3397 19.4867ZM40.1778 24.9497L43.34 19.4862L41.6091 18.4843L38.4468 23.9478L40.1778 24.9497ZM49.9965 39.274C49.4241 32.4553 45.5116 26.6747 39.7892 23.5698L38.8354 25.3277C43.9728 28.1152 47.4881 33.3021 48.0035 39.4413L49.9965 39.274ZM11 40.3577H49V38.3577H11V40.3577ZM20.2108 23.5698C14.4881 26.6747 10.5753 32.4553 10.0035 39.2741L11.9965 39.4412C12.5113 33.3021 16.0268 28.1153 21.1646 25.3277L20.2108 23.5698ZM16.6597 19.4853L19.8222 24.9497L21.5532 23.9479L18.3907 18.4835L16.6597 19.4853ZM16.6598 17.827C16.3629 18.3399 16.3628 18.9722 16.6596 19.4852L18.3907 18.4836C18.4525 18.5904 18.4525 18.7223 18.3907 18.8291L16.6598 17.827ZM18.0952 17C17.5041 16.9999 16.9566 17.3144 16.6598 17.827L18.3907 18.8291C18.329 18.9356 18.216 19 18.095 19L18.0952 17ZM19.5304 17.8274C19.2337 17.3147 18.6863 17.0001 18.0952 17L18.095 19C17.974 19 17.8609 18.9356 17.7993 18.829L19.5304 17.8274ZM22.7322 23.3598L19.5303 17.8273L17.7993 18.8291L21.0012 24.3616L22.7322 23.3598ZM29.9997 21.1251C26.9226 21.1251 24.0316 21.7773 21.4526 22.9505L22.2808 24.771C24.5993 23.7163 27.2079 23.1251 29.9997 23.1251V21.1251ZM38.5473 22.9506C35.968 21.7763 33.0765 21.1251 29.9997 21.1251V23.1251C32.7917 23.1251 35.4005 23.7155 37.7186 24.7708L38.5473 22.9506ZM40.4697 17.8273L37.2675 23.3598L38.9985 24.3617L42.2007 18.8292L40.4697 17.8273ZM41.9058 17.0004C41.3147 17 40.767 17.3143 40.47 17.8268L42.2004 18.8297C42.1387 18.9361 42.0256 19.0004 41.9047 19.0004L41.9058 17.0004ZM43.3407 17.8284C43.0443 17.3156 42.497 17.0007 41.9058 17.0004L41.9047 19.0004C41.7837 19.0003 41.6707 18.9358 41.6091 18.8293L43.3407 17.8284ZM21.4005 27.7591C18.9012 27.7596 16.8754 29.7861 16.8759 32.2855L18.8759 32.2851C18.8756 30.8903 20.0061 29.7594 21.4009 29.7591L21.4005 27.7591ZM25.9269 32.2838C25.9265 29.7844 23.8999 27.7587 21.4005 27.7591L21.4009 29.7591C22.7957 29.7589 23.9267 30.8894 23.9269 32.2842L25.9269 32.2838ZM21.4034 36.8102C23.901 36.8069 25.9246 34.7825 25.9269 32.2849L23.9269 32.2831C23.9256 33.6779 22.7955 34.8084 21.4007 34.8102L21.4034 36.8102ZM16.8759 32.2855C16.8763 34.7849 18.9029 36.8107 21.4023 36.8102L21.4019 34.8102C20.0071 34.8105 18.8761 33.68 18.8759 32.2851L16.8759 32.2855ZM38.875 27.7591C36.3756 27.7596 34.3499 29.7861 34.3503 32.2855L36.3503 32.2851C36.3501 30.8903 37.4806 29.7594 38.8754 29.7591L38.875 27.7591ZM43.4014 32.2838C43.401 29.7844 41.3744 27.7587 38.875 27.7591L38.8754 29.7591C40.2702 29.7589 41.4012 30.8894 41.4014 32.2842L43.4014 32.2838ZM38.8781 36.8102C41.3754 36.8065 43.3986 34.7824 43.4014 32.2851L41.4014 32.2829C41.3999 33.6777 40.2698 34.8081 38.8751 34.8102L38.8781 36.8102ZM34.3503 32.2855C34.3508 34.7849 36.3774 36.8107 38.8767 36.8102L38.8764 34.8102C37.4815 34.8105 36.3506 33.68 36.3503 32.2851L34.3503 32.2855Z" fill="white"/>
<defs>
<radialGradient id="paint0_radial" cx="0" cy="0" r="1" gradientUnits="userSpaceOnUse" gradientTransform="translate(30) rotate(90) scale(58.0449 86.5834)">
<stop stop-color="#5EFFA6"/>
<stop offset="1" stop-color="#01A94C"/>
</radialGradient>
</defs>
</svg>
